images/star.svg

<svg width="19" height="19" fill="none" xmlns="http://www.w3.org/2000/svg"><path d="M4.19767 11.3049l-1.36668 5.918c-.04232.1792-.02961.367.03646.5389.06607.1718.18243.3198.3339.4245.15146.1047.33097.1613.5151.1624.18412.0011.3643-.0534.517-.1563l4.99434-3.3295 4.99431 3.3295c.1563.1038.3405.1572.528.153.1875-.0041.3692-.0655.5208-.176.1515-.1105.2656-.2647.3269-.442.0612-.1772.0667-.369.0158-.5494l-1.6777-5.8703 4.1606-3.74419c.1333-.11998.2284-.27639.2737-.44989.0453-.1735.0388-.35647-.0188-.52628-.0576-.16982-.1637-.31903-.3051-.42919-.1415-.11016-.3122-.17643-.4909-.19063l-5.2292-.41642L10.0634.542085C9.99123.380794 9.87394.243833 9.72567.147729 9.5774.0516259 9.40448.00048828 9.22779.00048828c-.1767 0-.34962.05113762-.49789.14724072-.14827.096104-.26556.233065-.33771.394356L6.12937 5.5511l-5.229153.41551c-.175692.01392-.343653.07816-.483791.18503-.140138.10688-.246518.25187-.306413.41762-.059895.16575-.0707694.34525-.0313217.51702.0394477.17177.1275467.32854.2537577.45155L4.19767 11.3049zm2.61687-3.96794c.16372-.0129.32096-.06961.45523-.16418.13427-.09457.24062-.22351.30791-.37332l1.65011-3.65151 1.65011 3.65151c.0673.14981.1736.27875.3079.37332.1343.09457.2915.15128.4552.16418l3.6433.28892-3.0003 2.70032c-.2605.2348-.3641.5962-.2687.9338l1.1493 4.022-3.42683-2.2848c-.15041-.1009-.32746-.1549-.50861-.1549-.18115 0-.35819.054-.50861.1549l-3.58088 2.3876.9631-4.1698c.03531-.1533.03057-.3132-.01376-.4642-.04434-.151-.12678-.2881-.2394-.398L3.06305 7.63597l3.75149-.29901z" fill="#F3CD03"/></svg>

<svg width="19" height="19" viewBox="0 0 19 19" fill="none" xmlns="http://www.w3.org/2000/svg">
<path d="M4.19767 11.3049L2.83099 17.2229C2.78867 17.4021 2.80138 17.5899 2.86745 17.7618C2.93352 17.9336 3.04988 18.0816 3.20135 18.1863C3.35281 18.291 3.53232 18.3476 3.71645 18.3487C3.90057 18.3498 4.08075 18.2953 4.23345 18.1924L9.22779 14.8629L14.2221 18.1924C14.3784 18.2962 14.5626 18.3496 14.7501 18.3454C14.9376 18.3413 15.1193 18.2799 15.2709 18.1694C15.4224 18.0589 15.5365 17.9047 15.5978 17.7274C15.659 17.5502 15.6645 17.3584 15.6136 17.178L13.9359 11.3077L18.0965 7.56351C18.2298 7.44353 18.3249 7.28712 18.3702 7.11362C18.4155 6.94012 18.409 6.75715 18.3514 6.58734C18.2938 6.41752 18.1877 6.26831 18.0463 6.15815C17.9048 6.04799 17.7341 5.98172 17.5554 5.96752L12.3262 5.5511L10.0634 0.542085C9.99123 0.380794 9.87394 0.243833 9.72567 0.147729C9.5774 0.0516259 9.40448 0.000488281 9.22779 0.000488281C9.05109 0.000488281 8.87817 0.0516259 8.7299 0.147729C8.58163 0.243833 8.46434 0.380794 8.39219 0.542085L6.12937 5.5511L0.900217 5.96661C0.724525 5.98053 0.556564 6.04477 0.416426 6.15164C0.276288 6.25852 0.169908 6.40351 0.110013 6.56926C0.050118 6.73501 0.0392436 6.91451 0.0786913 7.08628C0.118139 7.25805 0.206238 7.41482 0.332449 7.53783L4.19767 11.3049ZM6.81454 7.33696C6.97826 7.32406 7.1355 7.26735 7.26977 7.17278C7.40404 7.07821 7.51039 6.94927 7.57768 6.79946L9.22779 3.14795L10.8779 6.79946C10.9452 6.94927 11.0515 7.07821 11.1858 7.17278C11.3201 7.26735 11.4773 7.32406 11.641 7.33696L15.2843 7.62588L12.284 10.3262C12.0235 10.561 11.9199 10.9224 12.0153 11.26L13.1646 15.282L9.73777 12.9972C9.58736 12.8963 9.41031 12.8423 9.22916 12.8423C9.04801 12.8423 8.87097 12.8963 8.72055 12.9972L5.13967 15.3848L6.10277 11.215C6.13808 11.0617 6.13334 10.9018 6.08901 10.7508C6.04467 10.5998 5.96223 10.4627 5.84961 10.3528L3.06305 7.63597L6.81454 7.33696Z" fill="#F3CD03"/>
</svg>
